X: 9615
T: Dawn, The
R: reel
M: 4/4
K: Amajor
abga fece|fbba geea|gebe c'ebe|ac'ea c'ae'c'|
abga fece|dcBc defg|(3aba gb afec|1 dcBe cAAg:|2 dcBe cAA2||

